Origami/64x64/apps/kicad.svg

<svg width="64" height="64" version="1" xmlns="http://www.w3.org/2000/svg">
 <path d="m4.0000004 56.200069v1.999971c0 1.549978 1.2495821 2.79996 2.80076 2.79996h50.39928c1.549977 0 2.79996-1.249982 2.79996-2.79996v-1.999971c0 1.549977-1.249983 2.79996-2.79996 2.79996h-50.39928c-1.5503779 0-2.79996-1.249983-2.79996-2.79996z" style="opacity:.2"/>
 <path d="m6.7999999 4.0000001c-1.5512 0-2.8 1.2488-2.8 2.8v50.4c0 1.5512 1.2488 2.8 2.8 2.8h50.4c1.5512 0 2.8-1.2488 2.8-2.8v-39.2a14 14 0 0 0 -14 -14z" style="fill:#44579d"/>
 <g transform="matrix(1.9999714,0,0,1.9999714,5.760572e-5,1.000858)" style="opacity:.2">
  <path d="m5 6v21h4v-5l4 5h5l-7-10.5 7-10.5h-5l-4 5v-5z"/>
  <path d="m22 13h4v14h-4z"/>
  <circle cx="24" cy="9" r="3"/>
 </g>
 <path d="m9.9999146 12.000715v41.999399h7.9998854v-9.999857l7.999886 9.999857h9.999857l-13.9998-20.999699 13.9998-20.9997h-9.999857l-7.999886 9.999857v-9.999857z" style="fill:#ffd676"/>
 <path d="m43.999428 26.000515h7.999886v27.999599h-7.999886z" style="fill:#ffd676"/>
 <circle cx="47.999" cy="18.001" r="6" style="fill:#ff7700"/>
 <path d="M 6.8007812 4 C 5.2495813 4 4 5.2495812 4 6.8007812 L 4 7.8007812 C 4 6.2495812 5.2495813 5 6.8007812 5 L 46 5 A 14 14 0 0 1 60 19 L 60 18 A 14 14 0 0 0 46 4 L 6.8007812 4 z" style="fill:#ffffff;opacity:.1"/>
</svg>

<svg xmlns="http://www.w3.org/2000/svg" width="64" height="64" version="1">
 <path style="opacity:0.2" d="m 4.0000004,56.200069 0,1.999971 c 0,1.549978 1.2495821,2.79996 2.80076,2.79996 L 57.20004,61 C 58.750017,61 60,59.750018 60,58.20004 l 0,-1.999971 c 0,1.549977 -1.249983,2.79996 -2.79996,2.79996 l -50.3992796,0 c -1.5503779,0 -2.79996,-1.249983 -2.79996,-2.79996 z"/>
 <path style="fill:#44579d" d="m 6.7999999,4.0000001 c -1.5512,0 -2.8,1.2488 -2.8,2.8 V 57.2 c 0,1.5512 1.2488,2.8 2.8,2.8 H 57.2 C 58.7512,60 60,58.7512 60,57.2 V 18 A 14,14 0 0 0 46,4.0000001 Z"/>
 <g style="opacity:0.2" transform="matrix(1.9999714,0,0,1.9999714,5.760572e-5,1.000858)">
  <path d="m 5,6 0,21 4,0 0,-5 4,5 5,0 L 11,16.5 18,6 13,6 9,11 9,6 Z"/>
  <path d="m 22,13 4,0 0,14 -4,0 z"/>
  <circle cx="24" cy="9" r="3"/>
 </g>
 <path style="fill:#ffd676" d="m 9.9999146,12.000715 0,41.999399 7.9998854,0 0,-9.999857 7.999886,9.999857 9.999857,0 -13.9998,-20.999699 13.9998,-20.9997 -9.999857,0 -7.999886,9.999857 0,-9.999857 z"/>
 <path style="fill:#ffd676" d="m 43.999428,26.000515 7.999886,0 0,27.999599 -7.999886,0 z"/>
 <circle style="fill:#ff7700" cx="47.999" cy="18.001" r="6"/>
 <path style="fill:#ffffff;opacity:0.1" d="M 6.8007812 4 C 5.2495813 4 4 5.2495812 4 6.8007812 L 4 7.8007812 C 4 6.2495812 5.2495813 5 6.8007812 5 L 46 5 A 14 14 0 0 1 60 19 L 60 18 A 14 14 0 0 0 46 4 L 6.8007812 4 z"/>
</svg>
